X: 10342
T: BEETHOVEN'S FAVORITE WALTZ
C:
%R: waltz
B: Elias Howe "The Musician's Companion" Part 1 1842 p.34 #2
S: http://imslp.org/wiki/The_Musician's_Companion_(Howe,_Elias)
Z: 2015 John Chambers <jc:trillian.mit.edu>
M: 3/4
L: 1/8
K: G
% - - - - - - - - - - - - - - - - - - - - - - - - -
Bc |\
dBG2Bc | dBG2gf | e2e2e2 | e3dcB |\
A2A2A2 | d3ccA | GFGBAF | G4 :: df |\
g2g2a2 | g2g2a2 |
g2a2b2 | afd2ef |\
gfgdfd | gfgdfd | g2dcBA | G4 :: GB |\
d2d^cdc | dBedcB | A2A2d2 | B2z2GB |\
d2d^cdc |
dBedcB | A2AGAB | G4 :: d2 |\
g2g2bg | d2dgdB | G2GF GB | B2A2df |\
g2g2bg | d2d2gd | BdGBAF | G4 :|
% - - - - - - - - - - - - - - - - - - - - - - - - -
